svgs/light/square-root-variable.svg

<svg xmlns="http://www.w3.org/2000/svg" viewBox="0 0 576 512"><!--! Font Awesome Pro 6.3.0 by @fontawesome - https://fontawesome.com License - https://fontawesome.com/license (Commercial License) Copyright 2023 Fonticons, Inc. --><path d="M539.3 228.7c-6.223-6.223-16.4-6.223-22.62 0L463.5 281.4L411.3 228.7c-6.221-6.223-16.4-6.223-22.62 0c-6.221 6.223-6.221 16.4 0 22.62L440.9 304l-52.21 52.71c-6.221 6.221-6.221 16.4 0 22.62c6.223 6.221 16.4 6.221 22.62 0l52.21-52.71l53.21 52.71c6.221 6.221 16.4 6.221 22.62 0c6.221-6.223 6.221-16.4 0-22.62L486.1 304l53.21-52.71C545.6 245.1 545.6 234.9 539.3 228.7zM560 32h-199.5c-21.62 0-40.75 14.62-46.25 35.5L213.1 443c-1.625 5.5-10.38 6.25-12.75 1.125L119.1 267.9c-7.875-16.88-25-27.88-43.63-27.88H16c-8.799 0-16 7.202-16 16c0 8.801 7.201 15.1 16 15.1h59.5c6.25 0 12 3.625 14.5 9.25l81 175.4c4.25 9.25 11.62 17 21.12 20.62c22.88 8.75 46-4.5 51.88-26l101.1-375.4C347 68.88 353.3 64 360.5 64H560C568.8 64 576 56.8 576 48S568.8 32 560 32z"/></svg>

<svg xmlns="http://www.w3.org/2000/svg" viewBox="0 0 576 512"><!-- Font Awesome Pro 6.0.0-alpha2 by @fontawesome - https://fontawesome.com License - https://fontawesome.com/license (Commercial License) --><path d="M539.334 228.666C533.111 222.443 522.93 222.443 516.709 228.666L463.5 281.375L411.291 228.666C405.07 222.443 394.889 222.443 388.666 228.666C382.445 234.889 382.445 245.068 388.666 251.291L440.875 304L388.666 356.709C382.445 362.93 382.445 373.111 388.666 379.334C394.889 385.555 405.07 385.555 411.291 379.334L463.5 326.625L516.709 379.334C522.93 385.555 533.111 385.555 539.334 379.334C545.555 373.111 545.555 362.93 539.334 356.709L486.125 304L539.334 251.291C545.555 245.068 545.555 234.889 539.334 228.666ZM560 32H360.5C338.875 32 319.75 46.625 314.25 67.502L213.125 443.018C211.5 448.518 202.75 449.268 200.375 444.143L119.125 267.885C111.25 251.01 94.125 240.01 75.5 240.01H16C7.201 240.01 0 247.209 0 256.01S7.201 272.01 16 272.01H75.5C81.75 272.01 87.5 275.635 90 281.26L171 456.645C175.25 465.895 182.625 473.645 192.125 477.27C215 486.02 238.125 472.77 244 451.268L345.125 75.877C347 68.877 353.25 64 360.5 64H560C568.799 64 576 56.801 576 48S568.799 32 560 32Z"/></svg>
